X:1
T:Title
%%score 1 { 2 | 3 }
L:1/8
Q:1/4=140
M:3/4
K:G
V:1 treble nm="Grand Piano, Soprano"
V:2 bass nm="Choir Pad, Holy Spirit, Teacher Thou"
V:3 bass 
V:1
 [B,D]4 [DG]2 | [GB]4 [EA]2 | [DG]4 [DF]2 | [DG]6 | [DF]4 [EG]2 | [FA]4 [GB]2 | [Ac]4 [GB]2 | %7
w: By~Robert~Lowry *|||||||
 [FA]6 | [GB]4 [FA]2 | [GB]4 [FA]2 | [EG]4 [^DF]2 | E4 C2 | [B,D]4 [DG]2 | [GB]4 [FA]2 | G6- | %15
w: ||||||||
 G4 z2 | [DA]4 [DG]2 | [DF]4 D2 | [Dc]4 [DB]2 | [DB]4 [DA]2 | [DB]4 [CA]2 | [B,G]4 [DF]2 | %22
w: |||||||
 [CE]4 [EA]2 | [DG]4 [DF]2 | [DG]4 [B,D]2 | [CE]4 [CF]2 | [B,G]4 [EA]2 | [^DB]6 | [Ec]4 [EA]2 | %29
w: |||||||
 [DG]4 [DF]2 | [DG]6- | [DG]6 |] %32
w: |||
V:2
 G,4 B,2 | D4 C2 | B,4 A,2 | B,6 | A,4 A,2 | D4 D2 | D4 D2 | D6 | D4 D2 | D4 C2 | B,4 A,2 | G,6 | %12
 G,4 B,2 | D4 C2 | B,6- | B,4 z2 | C4 B,2 | A,4 F,2 | A,4 G,2 | G,4 F,2 | G,4 F,2 | G,4 G,2 | %22
 G,4 C2 | B,4 A,2 | B,4 G,2 | G,4 A,2 | G,4 E,2 | F,6 | A,4 A,2 | B,4 A,2 | B,6- | B,6 |] %32
V:3
 G,,4 G,,2 | G,,4 C,2 | D,4 D,2 | G,,6 | D,4 D,2 | D,4 D,2 | F,4 G,2 | D,6 | G,4 D,2 | G,4 D,2 | %10
 E,4 B,,2 | C,6 | D,4 D,2 | D,4 D,2 | G,,6- | G,,4 z2 | D,4 D,2 | D,4 D,2 | F,4 z2 | D,4 D,2 | %20
 z2 z2 D,2 | E,4 B,,2 | C,4 A,,2 | D,4 D,2 | G,,4 G,,2 | C,4 A,,2 | E,4 C,2 | B,,6 | A,,4 C,2 | %29
 D,4 D,2 | G,,6- | G,,6 |] %32

